X:53
T:Cravens Whim. ThoH.053
Q:1/2=90
M:C
L:1/8
B:Thompson's Compleat Collection of 120 Favourite Hornpipes.
Z:Village Music Project, Simon Wilson 2016
O:England.
K:Eb
Bcd|(ec)GB (EGF)E|D2B,2-B,2A,B,|(G,B,E)B, (CcBA)|G2E2-ECB,A,|(G,B,E)B, Cedc|
(BAGF) (EBcd)|e2B2b3B|((3=AcB) ((3AGF)e3c|((3dfe) ((3dcB) ((3ced) ((3c=B=A)|B4z:|
|:ede|(fedc) (BAGF)|E2E2-E2g2|F2a2D2f2|E2g2C2a2|(ge)(fd) (ec)(d=B)|
c2c2-c2(eB)|(GE)(cA) (FD)(BG)|(GB)(DF) (EG)(B,D)|C(EAF) c(AFE)|(DF)(=A,C) (B,CB,_A,)|
(G,B,)(EB,) (CAFE)|D(cBA) G(edc)|(Bagf) ge(fd)|e2E2-E2:|

